X:5
T:Downfall of Paris
Z: id:dc-setdance-6
M:C|
L:1/8
K:G Major
(3DEF|G2GA G2GA|G2AB cBAG|A2AB A2AB|A2AB cBAG|!
B2BA B2BA|Bdgf edcB|A2AB A2AB|ABcA GFED|!
G2GA G2GA|G2AB cBAG|A2AB A2AB|A2AB cBAG|!
BABc dedc|BABc dedc|(3Bcd BG (3ABc AF|G2GF G2:|!
Bc|d2dB d2dB|e2d2 c2B2|c2cB c2cB|d2c2 B2A2|!
B2BA B2BA|Bdgf edcB|A2AB A2AB|ABcA GFED|!
G2GA G2GA|G2AB cBAG|A2AB A2AB|A2AB cBAG|!
BABc dedc|BABc dedc|(3Bcd BG (3ABc AF|G2GF G2:|!
Bc|d2ef gfed|Bdge dcBA|G2G2 A2A2|B2B2 A2Bc|!
d2ef gfed|Bdge dcBA|G2 (3ABc BGAF|G2GF G2:|!
AG|F2G2 A2B2|c2B2 A2G2|F2G2 A2B2|c2B2 A2Bc|!
d2ef gfed|Bdge dcBA|G2 (3ABc BGAF|G2GF G2:|!

